www/assets/icons/closed_caption_disabled.svg

<svg width="24" height="24" viewBox="0 0 24 24" xmlns="http://www.w3.org/2000/svg" fill='currentColor'><path d="M7.54501 3.28998H19.715C20.815 3.28998 21.715 4.18998 21.715 5.28998V17.29C21.715 17.34 21.705 17.39 21.695 17.45L18.315 14.07C18.555 13.88 18.715 13.61 18.715 13.29V12.29H17.215V12.79H17.045L15.215 10.96V9.78998H17.215V10.29H18.715V9.28998C18.715 8.73998 18.265 8.28998 17.715 8.28998H14.715C14.165 8.28998 13.715 8.73998 13.715 9.28998V9.45998L7.54501 3.28998ZM20.495 21.9L17.885 19.29H5.71501C4.60501 19.29 3.71501 18.39 3.71501 17.29V5.28998C3.71501 5.23998 3.73501 5.18998 3.73501 5.13998L2.10501 3.50998L3.51501 2.09998L21.895 20.48L20.495 21.9ZM11.715 13.12L10.885 12.29H10.215V12.79H8.21501V9.78998H8.38501L7.11501 8.50998C6.87501 8.69998 6.71501 8.96998 6.71501 9.28998V13.29C6.71501 13.84 7.16501 14.29 7.71501 14.29H10.715C11.265 14.29 11.715 13.84 11.715 13.29V13.12Z"/></svg>

<svg xmlns="http://www.w3.org/2000/svg" width="24" height="24" viewBox="0 0 24 24" fill='currentColor'><path d="M7.545 3.29h12.17c1.1 0 2 .9 2 2v12c0 .05-.01.1-.02.16l-3.38-3.38c.24-.19.4-.46.4-.78v-1h-1.5v.5h-.17l-1.83-1.83V9.79h2v.5h1.5v-1c0-.55-.45-1-1-1h-3c-.55 0-1 .45-1 1v.17zm12.95 18.61-2.61-2.61H5.715a2 2 0 0 1-2-2v-12c0-.05.02-.1.02-.15l-1.63-1.63 1.41-1.41 18.38 18.38zm-8.78-8.78-.83-.83h-.67v.5h-2v-3h.17l-1.27-1.28c-.24.19-.4.46-.4.78v4c0 .55.45 1 1 1h3c.55 0 1-.45 1-1z"/></svg>
